svgs/light/pumpkin.svg

<svg xmlns="http://www.w3.org/2000/svg" viewBox="0 0 576 512"><!--! Font Awesome Pro 6.3.0 by @fontawesome - https://fontawesome.com License - https://fontawesome.com/license (Commercial License) Copyright 2023 Fonticons, Inc. --><path d="M233.8 98.92c0 6.968 5.453 16 16.01 16c6.344 0 12.34-3.797 14.86-10.05l27.94-69.81l27.48 13.69V95.95c0 8.843 7.156 15.1 16 15.1s16.01-7.168 16.01-16.01V43.7c0-9.109-5.093-17.28-13.33-21.41l-39.55-19.68C295.7 .8682 292.1 0 288.4 0C278.9 0 269.8 5.796 266.1 15.13L234.9 92.96C234.2 94.92 233.8 96.94 233.8 98.92zM576 314.5c0-77.29-48.35-186.5-155.1-186.5c-1.792 0-3.59 .0356-5.394 .1072c-8.645 .2754-15.46 7.383-15.46 15.97c0 9.005 6.87 16 16.3 16c.4252 0 1.809-.0735 4.148-.0735c62.79 0 123.5 61.97 123.5 154.2c0 55.96-42.48 165.5-123.1 165.5c-44.32 0-48.41-23.06-67.43-23.06c-19.93 0-21.33 23.38-65.41 23.38c-44 0-45.35-23.4-65.36-23.4c-18.39 0-23.84 23.05-67.44 23.05c-81.83 0-123.2-109.6-123.2-165.5c0-60.99 37.16-154.2 123.8-154.2c3.648 0 3.906 .1131 4.88 .1131c5.902 0 15.33-5.277 15.33-16.05c0-8.596-6.823-15.7-15.49-15.96C158.9 128.1 157.3 128 155.8 128C49.02 128 0 235.8 0 314.5c0 93.39 67.19 197.1 155.2 197.1c23.96 0 47.96-6.908 67.33-20.77c18.44 14.22 39.92 21.14 65.47 21.14c25.5 0 47.03-6.906 65.62-21.15c19.32 13.88 43.28 20.8 67.23 20.8C509.7 511.6 576 406.5 576 314.5zM191.1 194.9c17.11 0 24.73-34.87 96.01-34.87c70.89 0 79.22 34.89 96 34.89c8.817 0 16-7.154 16-16.01c0-16.34-45.85-50.91-111.1-50.91c-66.17 0-112 34.57-112 50.91C175.1 187.7 183.1 194.9 191.1 194.9z"/></svg>

<svg xmlns="http://www.w3.org/2000/svg" viewBox="0 0 576 512"><!-- Font Awesome Pro 6.0.0-alpha2 by @fontawesome - https://fontawesome.com License - https://fontawesome.com/license (Commercial License) --><path d="M233.783 98.916C233.783 105.884 239.236 114.919 249.792 114.919C256.136 114.919 262.136 111.122 264.651 104.873L292.589 35.065L320.074 48.752V95.952C320.074 104.795 327.23 111.951 336.074 111.951S352.074 104.795 352.074 95.952V43.721C352.074 34.612 346.98 26.425 338.746 22.301L299.214 2.63C295.754 0.883 292.065 0 288.371 0C278.859 0 269.836 5.814 266.089 15.145L234.933 92.968C234.153 94.921 233.783 96.935 233.783 98.916ZM576 314.516C576 237.231 527.654 127.999 420.858 127.999C419.066 127.999 417.268 128.034 415.465 128.106C406.819 128.381 400.002 135.489 400.002 144.073C400.002 153.079 406.872 160.073 416.303 160.073C416.728 160.073 418.112 160 420.451 160C483.24 160 543.998 221.969 543.998 314.212C543.998 370.17 501.522 479.676 420.865 479.676C376.547 479.676 372.459 456.618 353.435 456.618C333.501 456.618 332.107 480.002 288.027 480.002C244.025 480.002 242.679 456.599 222.668 456.599C204.275 456.599 198.828 479.648 155.225 479.648C73.391 479.648 32.002 370.004 32.002 314.186C32.002 253.199 69.165 160.025 155.774 160.025C159.421 160.025 159.679 160.138 160.654 160.138C166.556 160.138 175.987 154.861 175.987 144.085C175.987 135.489 169.165 128.382 160.495 128.121C158.91 128.066 157.329 128.039 155.752 128.039C49.022 128.039 0 235.786 0 314.493C0 407.881 67.193 511.616 155.207 511.616C179.171 511.616 203.166 504.708 222.542 490.845C240.979 505.063 262.48 512 288.027 512C313.527 512 335.042 505.079 353.636 490.83C372.957 504.71 396.919 511.625 420.866 511.625C509.731 511.625 576 406.521 576 314.516ZM191.98 194.896C209.091 194.896 216.715 160.025 287.995 160.025C358.884 160.025 367.218 194.913 383.996 194.913C392.813 194.913 399.996 187.76 399.996 178.907C399.996 162.562 354.146 128.028 287.995 128.028C221.827 128.028 175.994 162.573 175.994 178.907C175.994 187.693 183.092 194.896 191.98 194.896Z"/></svg>
